X:527
T:Queen's Delight,The. (p)1706.PLFD.527
T:Rakes Delight,The. (p)1706.PLFD.527
M:6/4
L:1/4
Q:3/4=120
S:Playford, Dancing Master,13th Ed.,1706.
O:England
Z:Chris Partington.
K:F
c|f2ff>ga|f2ff>ed|c2cA>GF|A2AA2:||:B|G2GG>AB|
c2cc>BA|decf2d|gafb2a|ecff2e|f3-f2:|
